packages/bezier-icons/icons/call-in-progress.svg

<svg width="24" height="24" viewBox="0 0 24 24" fill="none" xmlns="http://www.w3.org/2000/svg">
<path fill-rule="evenodd" clip-rule="evenodd" d="M14 2C13.4477 2 13 2.44772 13 3C13 3.55228 13.4477 4 14 4C17.3137 4 20 6.68629 20 10C20 10.5523 20.4477 11 21 11C21.5523 11 22 10.5523 22 10C22 5.58172 18.4183 2 14 2ZM4.19998 4.95491C2.58593 6.56896 2.58593 11.0883 7.75088 16.2532C12.9158 21.4182 17.4352 21.4182 19.0492 19.8042C20.0176 18.8357 20.2804 17.4199 19.6948 16.5761C19.1783 15.8013 17.7207 14.6392 16.4667 14.6392C15.7105 14.6392 15.0602 15.1971 14.5243 15.6569C14.1451 15.9822 13.8232 16.2584 13.5615 16.2532C12.9298 16.2407 11.2864 15.5461 9.8722 14.1319C8.45799 12.7177 7.76339 11.0743 7.75088 10.4427C7.7457 10.181 8.0219 9.85903 8.34719 9.47987C8.80701 8.94392 9.36493 8.29362 9.36493 7.53739C9.36494 6.28347 8.20282 4.82579 7.42807 4.30928C6.58425 3.72371 5.16841 3.98648 4.19998 4.95491ZM13 7C13 6.44772 13.4477 6 14 6C16.2091 6 18 7.79086 18 10C18 10.5523 17.5523 11 17 11C16.4477 11 16 10.5523 16 10C16 8.89543 15.1046 8 14 8C13.4477 8 13 7.55228 13 7Z" fill="#313234"/>
</svg>

<svg xmlns="http://www.w3.org/2000/svg" width="24" height="24" fill="none" viewBox="0 0 24 24"><path fill="#313234" fill-rule="evenodd" d="M14 2a1 1 0 1 0 0 2 6 6 0 0 1 6 6 1 1 0 1 0 2 0 8 8 0 0 0-8-8M4.2 4.955c-1.614 1.614-1.614 6.133 3.55 11.298 5.166 5.165 9.685 5.165 11.3 3.551.968-.968 1.23-2.384.645-3.228-.517-.775-1.974-1.937-3.228-1.937-.756 0-1.407.558-1.943 1.018-.379.325-.7.601-.962.596-.632-.012-2.276-.707-3.69-2.121s-2.109-3.058-2.121-3.69c-.005-.261.27-.583.596-.962.46-.536 1.018-1.186 1.018-1.943 0-1.254-1.162-2.711-1.937-3.228-.844-.585-2.26-.323-3.228.646M13 7a1 1 0 0 1 1-1 4 4 0 0 1 4 4 1 1 0 1 1-2 0 2 2 0 0 0-2-2 1 1 0 0 1-1-1" clip-rule="evenodd"/></svg>
